polaris-icons/icons/new-icons/OrderStatusMinor.svg

<svg width="20" height="20" viewBox="0 0 20 20" fill="none" xmlns="http://www.w3.org/2000/svg">
<path d="M8.57891 5.61502L7.71196 7.02381C7.52996 7.31956 7.20756 7.49971 6.8603 7.49971H5C4.58579 7.49971 4.25 7.16393 4.25 6.74971C4.25 6.3355 4.58579 5.99971 5 5.99971H6.5809L8.00798 3.68072C8.49412 2.89074 9.70053 3.1309 9.84708 4.04682L10.4381 7.74053L11.3017 6.44501C11.4872 6.16682 11.7994 5.99971 12.1338 5.99971H15C15.4142 5.99971 15.75 6.3355 15.75 6.74971C15.75 7.16393 15.4142 7.49971 15 7.49971H12.4014L10.9781 9.63469C10.4735 10.3916 9.30231 10.1363 9.15858 9.23798L8.57891 5.61502Z" fill="#4A4A4A"/>
<path fill-rule="evenodd" clip-rule="evenodd" d="M5.15635 10L5.2882 9.11001C5.3489 8.70027 5.06595 8.3189 4.65621 8.2582C4.24647 8.1975 3.8651 8.48045 3.80439 8.89019L3.59447 10.3072C3.53158 10.7317 3.5 11.1603 3.5 11.5895V13.2501C3.5 15.045 4.95507 16.5001 6.75 16.5001H13.25C15.0449 16.5001 16.5 15.045 16.5 13.2501V11.5895C16.5 11.1603 16.4684 10.7317 16.4055 10.3072L16.1956 8.89019C16.1349 8.48045 15.7535 8.1975 15.3438 8.2582C14.9341 8.3189 14.6511 8.70027 14.7118 9.11001L14.8437 10H12.3604C11.8223 10 11.3447 10.3443 11.1745 10.8547L11.0164 11.3291C10.9824 11.4311 10.8868 11.5 10.7792 11.5H9.22076C9.11315 11.5 9.01762 11.4311 8.98359 11.3291L8.82547 10.8547C8.65533 10.3443 8.17766 10 7.63962 10H5.15635ZM5.00055 11.5C5.00018 11.5298 5 11.5596 5 11.5895V13.2501C5 14.2166 5.7835 15.0001 6.75 15.0001H13.25C14.2165 15.0001 15 14.2166 15 13.2501V11.5895C15 11.5596 14.9998 11.5298 14.9994 11.5H12.5406L12.4394 11.8034C12.2012 12.518 11.5325 13 10.7792 13H9.22076C8.46751 13 7.79876 12.518 7.56056 11.8034L7.45943 11.5H5.00055Z" fill="#4A4A4A"/>
</svg>

<svg viewBox="0 0 20 20" xmlns="http://www.w3.org/2000/svg"><path d="m8.579 5.615-.867 1.409a1 1 0 0 1-.852.476h-1.86a.75.75 0 1 1 0-1.5h1.58l1.428-2.32c.486-.79 1.693-.55 1.84.367l.59 3.694.864-1.296a1 1 0 0 1 .832-.445h2.866a.75.75 0 0 1 0 1.5h-2.599l-1.423 2.135c-.505.757-1.676.501-1.82-.397l-.58-3.623Z" fill="#5C5F62"/><path fill-rule="evenodd" d="m5.156 10 .132-.89a.75.75 0 1 0-1.484-.22l-.21 1.417a8.75 8.75 0 0 0-.094 1.282v1.661a3.25 3.25 0 0 0 3.25 3.25h6.5a3.25 3.25 0 0 0 3.25-3.25v-1.66c0-.43-.032-.858-.095-1.283l-.21-1.417a.75.75 0 0 0-1.483.22l.132.89h-2.484a1.25 1.25 0 0 0-1.185.855l-.159.474a.25.25 0 0 1-.237.171h-1.558a.25.25 0 0 1-.237-.17l-.159-.475a1.25 1.25 0 0 0-1.185-.855h-2.484Zm-.155 1.5-.001.09v1.66c0 .967.784 1.75 1.75 1.75h6.5a1.75 1.75 0 0 0 1.75-1.75v-1.75h-2.46l-.1.303a1.75 1.75 0 0 1-1.66 1.197h-1.56a1.75 1.75 0 0 1-1.66-1.197l-.1-.303h-2.46Z" fill="#5C5F62"/></svg>
